assets/ios/swift/Icons.xcassets/settingsSolid.imageset/settingsSolid.svg

<svg width="24" height="24" viewBox="0 0 24 24" fill="none" xmlns="http://www.w3.org/2000/svg">
<path d="M12.7314 2C13.432 2 14 2.56797 14 3.2686C14 3.84744 14.3963 4.34302 14.9348 4.55546C15.02 4.58907 15.1045 4.62411 15.1882 4.66054C15.7192 4.89152 16.3502 4.82141 16.7596 4.41194C17.2552 3.91642 18.0586 3.91642 18.5541 4.41194L19.5881 5.44592C20.0836 5.94144 20.0836 6.74485 19.5881 7.24037C19.1786 7.64983 19.1085 8.28077 19.3395 8.81177C19.3759 8.89551 19.4109 8.98 19.4445 9.0652C19.657 9.60365 20.1526 10 20.7314 10C21.432 10 22 10.568 22 11.2686V12.7314C22 13.432 21.432 14 20.7314 14C20.1526 14 19.657 14.3963 19.4445 14.9348C19.4109 15.02 19.3759 15.1045 19.3395 15.1882C19.1085 15.7192 19.1786 16.3502 19.5881 16.7596C20.0836 17.2552 20.0836 18.0586 19.5881 18.5541L18.5541 19.5881C18.0586 20.0836 17.2552 20.0836 16.7596 19.5881C16.3502 19.1786 15.7192 19.1085 15.1882 19.3395C15.1045 19.3759 15.02 19.4109 14.9348 19.4445C14.3963 19.657 14 20.1526 14 20.7314C14 21.432 13.432 22 12.7314 22H11.2686C10.568 22 10 21.432 10 20.7314C10 20.1526 9.60365 19.657 9.0652 19.4445C8.98 19.4109 8.89551 19.3759 8.81177 19.3395C8.28077 19.1085 7.64983 19.1786 7.24037 19.5881C6.74485 20.0836 5.94144 20.0836 5.44592 19.5881L4.41194 18.5541C3.91642 18.0586 3.91642 17.2552 4.41194 16.7596C4.82141 16.3502 4.89152 15.7192 4.66054 15.1882C4.62411 15.1045 4.58907 15.02 4.55546 14.9348C4.34302 14.3963 3.84744 14 3.2686 14C2.56797 14 2 13.432 2 12.7314V11.2686C2 10.568 2.56797 10 3.2686 10C3.84745 10 4.34302 9.60365 4.55546 9.0652C4.58908 8.98 4.62411 8.89551 4.66054 8.81177C4.89152 8.28077 4.82141 7.64983 4.41194 7.24037C3.91642 6.74485 3.91642 5.94144 4.41194 5.44592L5.44592 4.41194C5.94144 3.91642 6.74485 3.91642 7.24037 4.41194C7.64983 4.82141 8.28077 4.89152 8.81177 4.66054C8.89551 4.62411 8.98 4.58907 9.0652 4.55546C9.60365 4.34302 10 3.84744 10 3.2686C10 2.56797 10.568 2 11.2686 2H12.7314ZM12 16C14.2091 16 16 14.2091 16 12C16 9.79086 14.2091 8 12 8C9.79086 8 8 9.79086 8 12C8 14.2091 9.79086 16 12 16Z" fill="black"/>
</svg>

<svg xmlns="http://www.w3.org/2000/svg" width="24" height="24" fill="black" viewBox="0 0 24 24">
  <path d="M12.731 2C13.432 2 14 2.568 14 3.269c0 .578.396 1.074.935 1.286.085.034.17.07.253.106.531.23 1.162.16 1.572-.25a1.269 1.269 0 0 1 1.794 0l1.034 1.035a1.269 1.269 0 0 1 0 1.794c-.41.41-.48 1.04-.248 1.572.036.084.07.168.105.253.212.539.708.935 1.286.935.701 0 1.269.568 1.269 1.269v1.462c0 .701-.568 1.269-1.269 1.269-.578 0-1.074.396-1.287.935-.033.085-.068.17-.104.253-.232.531-.161 1.162.248 1.572a1.269 1.269 0 0 1 0 1.794l-1.034 1.034a1.269 1.269 0 0 1-1.794 0c-.41-.41-1.04-.48-1.572-.248a7.935 7.935 0 0 1-.253.105c-.539.212-.935.708-.935 1.286 0 .701-.568 1.269-1.269 1.269H11.27c-.702 0-1.27-.568-1.27-1.269 0-.578-.396-1.074-.935-1.287a7.975 7.975 0 0 1-.253-.104c-.531-.232-1.162-.161-1.572.248a1.269 1.269 0 0 1-1.794 0l-1.034-1.034a1.269 1.269 0 0 1 0-1.794c.41-.41.48-1.04.249-1.572a7.89 7.89 0 0 1-.106-.253C4.343 14.396 3.847 14 3.27 14 2.568 14 2 13.432 2 12.731V11.27c0-.702.568-1.27 1.269-1.27.578 0 1.074-.396 1.286-.935.034-.085.07-.17.106-.253.23-.531.16-1.162-.25-1.572a1.269 1.269 0 0 1 0-1.794l1.035-1.034a1.269 1.269 0 0 1 1.794 0c.41.41 1.04.48 1.572.249a7.93 7.93 0 0 1 .253-.106c.539-.212.935-.708.935-1.286C10 2.568 10.568 2 11.269 2h1.462ZM12 16a4 4 0 1 0 0-8 4 4 0 0 0 0 8Z"/>
</svg>
